X:1
T:Title
%%score 1 2 3 4
L:1/8
M:4/4
K:F
V:1 treble nm="Trumpet, Staff"
V:2 treble nm="French Horn, Staff-1"
V:3 treble nm="Trombone, Staff-2"
V:4 bass nm="Tuba, Staff-3"
V:1
 A2 A2 B4 | c2 G2 A2 A2 | G2 A2 F4 | E2 F2 D4 | D2 C2 D2 E2 | F2 G2 A2 c2 | B2 A2 G4- | G4 F4- | %8
w: By~Traditional~Italian * *||||||||
 F2 G2 A2 c2 | =B2 d2 c4 | c2 C2 E2 G2 | ^F2 A2 G2 G2 | z2 G2 G2 E2 | F2 G2 A2 G2 | F2 E2 D4 | %15
w: |||||||
 C4 c4 | B2 A2 G4- | G4 F4- | F4 z4 |] %19
w: ||||
V:2
 F2 F2 G4 | G2 G2 F2 F2 | F2 E2 D4 | D2 C2[K:bass] B,4 | B,2 G,2 B,2 B,2 | D2 E2 F2 E2 | %6
w: To ther~ day~|in~ mid win\-~ ter~|On~ the~ feast~|of~ Saint~ Ste|phen,~ Up on~ my~|rounds~ I~ walk'd~ a|
 D2 C2 C4- | C4 A,4- | A,2 E2 F2 E2 | G2 G2 E4 | E2 C2 C2 E2 | D2 D2 D2 D2 | z2 D2 E2 C2 | %13
w: broad~ at~ e|* ven;~|* For~ weeks~ it~|had~ been~ blow|ing,~ For~ weeks~ it~|had~ been~ blow ing~|From~ East ern~|
 D2 E2 F2 D2 | C2 C2 C2 =B,2 | C4 F2 E2 | D2 C2 C4- | C4 A,4- | A,4 z4 |] %19
w: lands,~ and~ now~ full~|fast~ was~ snow *|ing,~ Snow *|ing,~ Yea,~ snow|* ing.~||
V:3
 C2 C2 D4 | C2 C2 C2 C2 | C2 C2[K:bass] A,4 | A,2 A,2 F,4 | F,2 E,2 F,2 G,2 | A,2 C2 C2 C2 | %6
 F,2 F,2 F,4 | E,4 F,4- | F,2[K:treble] C2 C2 C2 | D2 =B,2 C4 | C2[K:bass] A,2 G,2 C2 | %11
 A,2 ^F,2 G,2 G,2 | z2 =B,2 C2 G,2 | B,2 B,2 C2 B,2 | A,2 G,2 G,4 | G,4 F,4 | F,2 F,2 F,4 | %17
 E,4 F,4- | F,4 z4 |] %19
V:4
 F,2 F,2 F,4 | E,2 E,2 F,2 F,2 | C,2 C,2 D,4 | A,,2 A,,2 B,,4 | B,,2 C,2 B,,2 G,,2 | %5
 D,2 C,2 F,2 A,,2 | B,,2 F,2 C,4- | C,4 F,,4- | F,,2 C,2 F,2 A,2 | G,2 G,2 C,4 | C,2 F,2 C,2 C,2 | %11
 D,2 D,2 G,,2 G,,2 | z2 G,2 C,2 C,2 | B,,2 G,,2 F,,2 G,,2 | A,,2 C,2 G,,4 | C,4 A,,4 | %16
 B,,2 F,2 C,4- | C,4 F,,4- | F,,4 z4 |] %19

